material/.icons/material/swap-vertical-bold.svg

<svg xmlns="http://www.w3.org/2000/svg" viewBox="0 0 24 24"><path d="M14 8h-3v6H6V8H3l5.5-6L14 8m1.5 14l5.5-6h-3v-6h-5v6h-3l5.5 6z"/></svg>

<?xml version="1.0" encoding="UTF-8"?><!DOCTYPE svg PUBLIC "-//W3C//DTD SVG 1.1//EN" "http://www.w3.org/Graphics/SVG/1.1/DTD/svg11.dtd"><svg xmlns="http://www.w3.org/2000/svg" xmlns:xlink="http://www.w3.org/1999/xlink" version="1.1" id="mdi-swap-vertical-bold" width="24" height="24" viewBox="0 0 24 24"><path d="M14,8H11V14H6V8H3L8.5,2L14,8M15.5,22L21,16H18V10H13V16H10L15.5,22Z" /></svg>
